!!!COM: Changundega, Fred Lecture
!!!CDT: b.1954
!!!OTL: National Anthem, Zimbabwe - Kalibusiswe Ilzwe leZimbabwe (Blessed be the Land of Zimbabwe)
!!!ENC: Davis, Matthew J.
!!Vocal Line Only
**kern
*clefG2
*k[f#]
*G:
*M4/4
=1-
8d
8d
=2
2g
4a
4a
=3
2b
4b
8dd
8cc
=4
4b
8b
8g
4a
4a
=5
2.g
8d
8d
=6
2g
4a
4a
=7
2dd
4dd
8dd
8ee
=8
4dd
8dd
8cc
4b
4a
=9
4.g
8r
4r
8r
8g
=10
4.cc
8cc
8cc
8cc
8b
8cc
=11
8dd
8ee
8dd
8b
4g
8dd
8cc
=12
4b
8a
8g
4.e
8g
=13
8b
8b
8a
8g
4f#
4d
=14
2g
4a
8b
8cc
=15
2dd
4dd
8dd
8cc
=16
4b
8b
8g
4a
4a
=17
2.g
==|!
*-
